!!!!SEGMENT: Div2002-Magnificat_secundi_toni.krn
!!!id: Div2002
!!!AGN: Motet
!!!voices: 2-5
!!!COM: Antonius Divitis
!!!OTL: Magnificat secundi toni
**kern	**kern	**kern	**kern	**kern
*part5	*part4	*part3	*part2	*part1
*staff5	*staff4	*staff3	*staff2	*staff1
*I"Bassus	*I"Tenor II	*I"Tenor I	*I"Altus	*I"Superius
*I'B	*I'T. II	*I'T. I	*I'A	*I'S
*clefF4	*clefGv2	*clefGv2	*clefGv2	*clefG2
*k[b-]	*k[b-]	*k[b-]	*k[b-]	*k[b-]
*M2/1	*M2/1	*M2/1	*M2/1	*M2/1
*met(C|)	*met(C|)	*met(C|)	*met(C|)	*met(C|)
=1	=1	=1	=1	=1
!!section: Et exultavit
!!!OMD: Et exultavit
0r	0r	1F	0r	0r
.	.	1G	.	.
=2	=2	=2	=2	=2
0r	0r	2F	0r	1f
.	.	1B-y	.	.
.	.	.	.	1g
.	.	2c	.	.
=3	=3	=3	=3	=3
0r	0r	2.d	0r	1f
.	.	4c	.	.
.	.	4B-y	.	[1b-y
.	.	4A	.	.
.	.	4G	.	.
.	.	4F	.	.
=4	=4	=4	=4	=4
0r	0r	2G	0r	2b-]
.	.	2F	.	2a
.	.	2B-y	.	1g
.	.	2c	.	.
=5	=5	=5	=5	=5
0r	0r	1d	0r	2.f
.	.	.	.	4g
.	.	[1e-i	.	4a
.	.	.	.	4b-y
.	.	.	.	[2cc
=6	=6	=6	=6	=6
1r	0r	4e-]	0r	4cc]
.	.	4d	.	4b-y
.	.	4c	.	1b-y
.	.	4B-y	.	.
1F	.	1c	.	.
.	.	.	.	2a
=7	=7	=7	=7	=7
1G	0r	1B-y	1r	1b-y
1F	.	1r	1F	1r
=8	=8	=8	=8	=8
1B-y	0r	0r	1G	0r
2A	.	.	1F	.
2F	.	.	.	.
=9	=9	=9	=9	=9
2D	0r	0r	0B-y	0r
1E-i	.	.	.	.
4D	.	.	.	.
4C	.	.	.	.
=10	=10	=10	=10	=10
2.BB-y	0r	0r	1.B-y	0r
4C	.	.	.	.
4D	.	.	.	.
4E	.	.	.	.
2F	.	.	2A	.
=11	=11	=11	=11	=11
2G	0r	0r	1B-y	0r
1B-y	.	.	.	.
.	.	.	1c	.
2A	.	.	.	.
=12	=12	=12	=12	=12
2B-y	0r	0r	1.d	0r
1BB-y	.	.	.	.
2C	.	.	[2c	.
=13	=13	=13	=13	=13
2D	0r	0r	4c]	0r
.	.	.	4B-y	.
2E-i	.	.	1B-y	.
1C	.	.	.	.
.	.	.	2A	.
=14	=14	=14	=14	=14
1BB-y	0r	0r	0B-y	0r
1r	.	.	.	.
=15	=15	=15	=15	=15
[0BB-y	0r	[0d	[0f	[0b-y
=16	=16	=16	=16	=16
1BB-]	0r	1d]	1f]	1b-]
1BB-y	.	1d	1f	1b-y
=17	=17	=17	=17	=17
0BB-y	0r	0d	0f	0b-y
=18	=18	=18	=18	=18
0F	0r	1.c	0f	0cc
.	.	4B-y	.	.
.	.	4A	.	.
=19	=19	=19	=19	=19
1.G	0r	2.G	2e	1.b-y
.	.	.	2d	.
.	.	4A	.	.
.	.	2B-y	1G	.
4F	.	[2c	.	4a
4E	.	.	.	4g
=20	=20	=20	=20	=20
2D	0r	4c]	1r	2f
.	.	4B-y	.	.
2E-X	.	1B-y	.	2g
1C	.	.	1c	1e
.	.	2A	.	.
=21	=21	=21	=21	=21
0BB-y	0r	0B-y	[0f	2.d
.	.	.	.	4e
.	.	.	.	2f
.	.	.	.	2g
=22	=22	=22	=22	=22
0F	0r	0c	0f]	2a
.	.	.	.	1b-y
.	.	.	.	2a
=23	=23	=23	=23	=23
1BB-y	0r	1B-y	1d	1b-y
1BB-y	.	1d	1f	1b-y
=24	=24	=24	=24	=24
0BB-y	0r	0d	0f	0b-y
=25	=25	=25	=25	=25
0BB-y	0r	0d	0f	0b-y
=26	=26	=26	=26	=26
0r	0r	4G	0r	1b-y
.	.	4A	.	.
.	.	4B-y	.	.
.	.	4c	.	.
.	.	2d	.	1b-y
.	.	2e	.	.
=27	=27	=27	=27	=27
0r	0r	1f	0r	1a
.	.	2e	.	2g
.	.	[2d	.	[2b-y
=28	=28	=28	=28	=28
0r	0r	2d]	0r	2b-]
.	.	4c	.	4a
.	.	4B-y	.	4g
.	.	1A	.	2f#i
.	.	.	.	4g
.	.	.	.	4f#i
=29	=29	=29	=29	=29
4GG	0r	1G	1B-y	1g
4AA	.	.	.	.
4BB-y	.	.	.	.
4C	.	.	.	.
2D	.	1r	1B-y	1r
2E	.	.	.	.
=30	=30	=30	=30	=30
1F	0r	0r	1A	0r
2E	.	.	2G	.
[2D	.	.	[2B-y	.
=31	=31	=31	=31	=31
2D]	0r	0r	2B-]	0r
4C	.	.	4A	.
4BB-y	.	.	4G	.
1AA	.	.	2F#i	.
.	.	.	4G	.
.	.	.	4F#i	.
=32	=32	=32	=32	=32
1GG	0r	1G	2G	1b-y
.	.	.	1d	.
1G	.	1B-y	.	1b-y
.	.	.	2e	.
=33	=33	=33	=33	=33
1F	0r	2c	1.f	1a
.	.	2.d	.	.
2D	.	.	.	2f
.	.	4c	.	.
[2E	.	4B-y	4e	[2g
.	.	4A	4d	.
=34	=34	=34	=34	=34
2E]	0r	2G	1.c	2g]
2.F	.	2.F	.	2.a
4E	.	4G	.	4g
4D	.	2A	[2d	4f
4C	.	.	.	4e
=35	=35	=35	=35	=35
2BB-y	0r	2B-y	2d]	2d
2E-X	.	2G	2c	1g
1D	.	1A	1d	.
.	.	.	.	2f#i
=36	=36	=36	=36	=36
0GGl	0r	0Gl	0dl	0gl
=37||	=37||	=37||	=37||	=37||
*M2/1	*M2/1	*M2/1	*M2/1	*M2/1
*met(C|)	*met(C|)	*met(C|)	*met(C|)	*met(C|)
!!section: Quia fecit
!!!OMD: Quia fecit
0r	0r	[0F	1c	0r
.	.	.	2d	.
.	.	.	[2c	.
=38	=38	=38	=38	=38
0r	0r	0F]	4c]	0r
.	.	.	4B-y	.
.	.	.	4A	.
.	.	.	4G	.
.	.	.	4A	.
.	.	.	4B-y	.
.	.	.	4c	.
.	.	.	4d	.
=39	=39	=39	=39	=39
0C	0r	0G	2e	0r
.	.	.	1f	.
.	.	.	2e	.
=40	=40	=40	=40	=40
1.D	0r	1F	1.f	0r
.	.	[1B-y	.	.
2BB-y	.	.	2d	.
=41	=41	=41	=41	=41
2D	0r	2B-]	2f	0r
2E-X	.	4A	2g	.
.	.	4G	.	.
1C	.	1A	1e	.
=42	=42	=42	=42	=42
4BB-y	0r	1B-y	0d	0r
4C	.	.	.	.
4D	.	.	.	.
4E-i	.	.	.	.
4D	.	1d	.	.
4BB-y	.	.	.	.
[2B-y	.	.	.	.
=43	=43	=43	=43	=43
2B-]	0r	0c	0r	0r
4A	.	.	.	.
4G	.	.	.	.
1A	.	.	.	.
=44	=44	=44	=44	=44
1B-y	0r	0B-y	1.f	0r
1r	.	.	.	.
.	.	.	4e	.
.	.	.	4f	.
=45	=45	=45	=45	=45
1.BB-y	0r	0B-y	2g	0r
.	.	.	2.f	.
.	.	.	4e	.
2BB-y	.	.	4d	.
.	.	.	4c	.
=46	=46	=46	=46	=46
1BB-y	0r	1.f	[0d	0r
1BB-y	.	.	.	.
.	.	4e	.	.
.	.	4f	.	.
=47	=47	=47	=47	=47
0B-y	0r	2g	0d]	0r
.	.	2.f	.	.
.	.	4e	.	.
.	.	4d	.	.
.	.	4c	.	.
=48	=48	=48	=48	=48
2G	0r	2B-y	0r	0r
2.B-y	.	2.d	.	.
4A	.	4c	.	.
4G	.	4B-y	.	.
4F	.	4A	.	.
=49	=49	=49	=49	=49
2G	0r	2B-y	0r	0r
2F	.	2c	.	.
2.D	.	2d	.	.
.	.	[2f	.	.
4E	.	.	.	.
=50	=50	=50	=50	=50
2F	0r	4f]	0r	0r
.	.	4e	.	.
2G	.	1d	.	.
1E	.	.	.	.
.	.	2c#i	.	.
=51	=51	=51	=51	=51
1.D	0r	0d	1.f	0r
4C	.	.	4e	.
4BB-y	.	.	4d	.
=52	=52	=52	=52	=52
2C	0r	0r	2e	0r
2.BB-y	.	.	1d	.
4C	.	.	.	.
4D	.	.	4c	.
4E	.	.	4B-y	.
=53	=53	=53	=53	=53
1.F	0r	0r	2A	0r
.	.	.	1d	.
2E	.	.	[2c	.
=54	=54	=54	=54	=54
2D	0r	0r	2c]	0r
2BB-y	.	.	1B-y	.
1C	.	.	.	.
.	.	.	2A	.
=55	=55	=55	=55	=55
1BB-y	0r	1B-y	1d	0r
2.F	.	1A	1c	.
4E	.	.	.	.
=56	=56	=56	=56	=56
4D	0r	1B-y	1d	0r
4C	.	.	.	.
1BB-y	.	.	.	.
.	.	1c	1e	.
2AA	.	.	.	.
=57	=57	=57	=57	=57
1BB-y	0r	1B-y	1d	0r
1F	.	1r	2.c	.
.	.	.	4d	.
=58	=58	=58	=58	=58
1E	0r	0r	4e	0r
.	.	.	4f	.
.	.	.	1g	.
1F	.	.	.	.
.	.	.	[2f	.
=59	=59	=59	=59	=59
1G	0r	2r	2f]	0r
.	.	1B-y	2e	.
1F	.	.	1f	.
.	.	2A	.	.
=60	=60	=60	=60	=60
2BB-y	0r	1B-y	[0d	0r
4GG	.	.	.	.
4AA	.	.	.	.
4BB-y	.	2B-y	.	.
4C	.	.	.	.
4D	.	2B-y	.	.
4E	.	.	.	.
=61	=61	=61	=61	=61
2F	0r	2A	0d]	0r
1G	.	2G	.	.
.	.	1A	.	.
2F#i	.	.	.	.
=62	=62	=62	=62	=62
1G	0r	2G	1B-y	0r
.	.	1B-y	.	.
1GG	.	.	2B-y	.
.	.	4A	2B-y	.
.	.	4G	.	.
=63	=63	=63	=63	=63
0r	0r	2F	2A	0r
.	.	1G	2G	.
.	.	.	1A	.
.	.	2F	.	.
=64	=64	=64	=64	=64
2.GG	0r	1B-y	4G	0r
.	.	.	4A	.
.	.	.	4B-y	.
4AA	.	.	4c	.
2BB-y	.	2B-y	2d	.
2C	.	2B-y	2e	.
=65	=65	=65	=65	=65
2D	0r	2A	2f	0r
2BB-y	.	2G	1g	.
2C	.	1A	.	.
2D	.	.	2f#i	.
=66	=66	=66	=66	=66
2.GG	0r	0G	1g	0r
4AA	.	.	.	.
4BB-y	.	.	2r	.
4C	.	.	.	.
[2BB-y	.	.	[2d	.
=67	=67	=67	=67	=67
4BB-]	0r	0B-y	4d]	0r
4C	.	.	4e	.
4D	.	.	4f	.
4E	.	.	4g	.
2D	.	.	2f	.
[2GG	.	.	[2B-y	.
=68	=68	=68	=68	=68
4GG]	0r	1B-y	4B-]	0r
4AA	.	.	4c	.
4BB-y	.	.	4d	.
4C	.	.	4e	.
2D	.	1B-y	2f	.
2E	.	.	2e	.
=69	=69	=69	=69	=69
1.F	0r	1.A	2.c	0r
.	.	.	4B-y	.
.	.	.	4A	.
.	.	.	4G	.
2D	.	2F	[2A	.
=70	=70	=70	=70	=70
1E	0r	1G	4A]	0r
.	.	.	4G	.
.	.	.	1g	.
1D	.	1A	.	.
.	.	.	2f#i	.
=71	=71	=71	=71	=71
0GGl	0r	0Gl	0gl	0r
=72||	=72||	=72||	=72||	=72||
*M2/1	*M2/1	*M2/1	*M2/1	*M2/1
*met(C|)	*met(C|)	*met(C|)	*met(C|)	*met(C|)
!!section: Fecit potentiam
!!!OMD: Fecit potentiam
0r	0r	0r	2.F	[0f
.	.	.	4G	.
.	.	.	2A	.
.	.	.	[2B-y	.
=73	=73	=73	=73	=73
0r	0r	0r	2B-]	0f]
.	.	.	4A	.
.	.	.	4G	.
.	.	.	2A	.
.	.	.	[2B-y	.
=74	=74	=74	=74	=74
0r	0r	0r	4B-]	0g
.	.	.	4A	.
.	.	.	4G	.
.	.	.	4F	.
.	.	.	4G	.
.	.	.	4A	.
.	.	.	4B-y	.
.	.	.	4c	.
=75	=75	=75	=75	=75
0r	0r	0r	2.d	2.f
.	.	.	4c	4e
.	.	.	4d	4f
.	.	.	4e	4g
.	.	.	[2f	[2a
=76	=76	=76	=76	=76
0r	0r	0r	2f]	2a]
.	.	.	4e	4g
.	.	.	4d	4f
.	.	.	2e	2g
.	.	.	[2d	2a
=77	=77	=77	=77	=77
0r	0r	0r	4d]	0b-y
.	.	.	4c	.
.	.	.	4B-y	.
.	.	.	4A	.
.	.	.	2G	.
.	.	.	[2d	.
=78	=78	=78	=78	=78
0r	0r	0r	4d]	1a
.	.	.	4c	.
.	.	.	2.c	.
.	.	.	.	1g
.	.	.	4B-y	.
.	.	.	2B-y	.
=79	=79	=79	=79	=79
0r	0r	0r	2A	1f
.	.	.	2B-y	.
.	.	.	2G	2e
.	.	.	[2F	[2f
=80	=80	=80	=80	=80
0r	0r	0r	2F]	4f]
.	.	.	.	4e
.	.	.	1f	1d
.	.	.	4e	4c
.	.	.	4d	4B-y
=81	=81	=81	=81	=81
0r	0r	0r	2e	2c
.	.	.	2.f	2d
.	.	.	.	2B-y
.	.	.	4e	.
.	.	.	4d	[2f
.	.	.	4c	.
=82	=82	=82	=82	=82
0r	0r	0r	2B-y	4f]
.	.	.	.	4g
.	.	.	2A	4a
.	.	.	.	4b-y
.	.	.	2.B-y	2g
.	.	.	.	[2f
.	.	.	4c	.
=83	=83	=83	=83	=83
0r	0r	0r	2d	2f]
.	.	.	2e	1b-y
.	.	.	1c	.
.	.	.	.	2a
=84	=84	=84	=84	=84
0r	0r	0r	1B-y	0b-y
.	.	.	2r	.
.	.	.	[2e-i	.
=85	=85	=85	=85	=85
0r	0r	0r	2e-]	0r
.	.	.	2.d	.
.	.	.	4c	.
.	.	.	4B-y	.
.	.	.	4A	.
=86	=86	=86	=86	=86
0r	0r	0r	1G	1.b-y
.	.	.	1r	.
.	.	.	.	2a
=87	=87	=87	=87	=87
0r	0r	0r	1.d	1b-y
.	.	.	.	1cc
.	.	.	2c	.
=88	=88	=88	=88	=88
0r	0r	0r	1d	2.b-y
.	.	.	.	4a
.	.	.	1e	4g
.	.	.	.	4f
.	.	.	.	2g
=89	=89	=89	=89	=89
0r	0r	0r	2d	2f
.	.	.	2.f	2.a
.	.	.	4e	4g
.	.	.	[2d	[2f
=90	=90	=90	=90	=90
0r	0r	0r	2d]	2f]
.	.	.	4c	4e
.	.	.	4B-y	4d
.	.	.	2c	2e
.	.	.	2d	2d
=91	=91	=91	=91	=91
0r	0r	0r	2A	1f
.	.	.	1d	.
.	.	.	.	1e
.	.	.	2c#i	.
=92	=92	=92	=92	=92
0r	0r	0r	[0d	2r
.	.	.	.	2.d
.	.	.	.	4e
.	.	.	.	4f
.	.	.	.	4g
=93	=93	=93	=93	=93
0r	0r	0r	0d]	4a
.	.	.	.	4b-y
.	.	.	.	2.a
.	.	.	.	4g
.	.	.	.	4f
.	.	.	.	4e
=94	=94	=94	=94	=94
0r	0r	0r	2r	1d
.	.	.	2.G	.
.	.	.	.	1b-y
.	.	.	4A	.
.	.	.	4B-y	.
.	.	.	4c	.
=95	=95	=95	=95	=95
0r	0r	0r	4d	1a
.	.	.	4e	.
.	.	.	2.d	.
.	.	.	.	1f
.	.	.	4c	.
.	.	.	4B-y	.
.	.	.	4A	.
=96	=96	=96	=96	=96
0r	0r	0r	1G	2g
.	.	.	.	1b-y
.	.	.	2d	.
.	.	.	2e	4a
.	.	.	.	4g
=97	=97	=97	=97	=97
0r	0r	0r	1.f	2a
.	.	.	.	4f
.	.	.	.	4g
.	.	.	.	4a
.	.	.	.	4b-y
.	.	.	2e	[2cc
=98	=98	=98	=98	=98
0r	0r	0r	2d	4cc]
.	.	.	.	4b-y
.	.	.	4c	1b-y
.	.	.	4B-y	.
.	.	.	1c	.
.	.	.	.	2a
=99	=99	=99	=99	=99
0r	0r	0r	0B-y	1b-y
.	.	.	.	2r
.	.	.	.	2f
=100	=100	=100	=100	=100
0r	0r	0r	2r	1f
.	.	.	2B-y	.
.	.	.	[1B-y	1f
=101	=101	=101	=101	=101
0r	0r	0r	1B-]	2r
.	.	.	.	2f
.	.	.	1B-y	2.f
.	.	.	.	8eL
.	.	.	.	8fJ
=102	=102	=102	=102	=102
0r	0r	0r	2r	2g
.	.	.	2B-y	2f
.	.	.	2.B-y	2.d
.	.	.	8AL	8cL
.	.	.	8B-yJ	8dJ
=103	=103	=103	=103	=103
0r	0r	0r	2c	2e
.	.	.	2B-y	1d
.	.	.	2.G	.
.	.	.	.	2g
.	.	.	8FL	.
.	.	.	8GJ	.
=104	=104	=104	=104	=104
0r	0r	0r	2A	2f
.	.	.	2G	1b-y
.	.	.	1d	.
.	.	.	.	[2a
=105	=105	=105	=105	=105
0r	0r	0r	1c	2a]
.	.	.	.	1g
.	.	.	1e	.
.	.	.	.	2cc
=106	=106	=106	=106	=106
0r	0r	0r	2d	2b-y
.	.	.	1f	1a
.	.	.	4e	4g
.	.	.	4d	4f
=107	=107	=107	=107	=107
0r	0r	0r	2c	2e
.	.	.	2d	2.d
.	.	.	4B-y	.
.	.	.	4c	4e
.	.	.	4d	4f
.	.	.	4e	4g
=108	=108	=108	=108	=108
0r	0r	0r	4f	4a
.	.	.	4d	4b-y
.	.	.	2e	2cc
.	.	.	2d	2b-y
.	.	.	[2c	[2a
=109	=109	=109	=109	=109
0r	0r	0r	2c]	2a]
.	.	.	2B-y	1g
.	.	.	1A	.
.	.	.	.	2f#i
=110	=110	=110	=110	=110
0r	0r	0r	0Gl	0gl
=111||	=111||	=111||	=111||	=111||
*M2/1	*M2/1	*M2/1	*M2/1	*M2/1
*met(C|)	*met(C|)	*met(C|)	*met(C|)	*met(C|)
!!section: Esurientes
!!!OMD: Esurientes
0r	0r	0r	0c	0r
=112	=112	=112	=112	=112
0r	0r	0r	2.d	0f
.	.	.	4c	.
.	.	.	[1f	.
=113	=113	=113	=113	=113
0r	0r	0r	2f]	2.g
.	.	.	4e	.
.	.	.	4d	4f
.	.	.	1e	[1b-y
=114	=114	=114	=114	=114
0r	0r	0F	0f	2b-]
.	.	.	.	4a
.	.	.	.	4g
.	.	.	.	1a
=115	=115	=115	=115	=115
0BB-y	0r	2.G	0r	2.b-y
.	.	4F	.	4a
.	.	[1B-y	.	2f
.	.	.	.	[2g
=116	=116	=116	=116	=116
1C	0r	2B-]	0r	2g]
.	.	4A	.	2f
.	.	4G	.	.
1C	.	1A	.	1e
=117	=117	=117	=117	=117
1.BB-y	0r	1B-y	0r	0d
.	.	2G	.	.
2GG	.	[2B-y	.	.
=118	=118	=118	=118	=118
2BB-y	0r	4B-]	0r	1r
.	.	4A	.	.
2C	.	1G	.	.
1AA	.	.	.	1a
.	.	2F#i	.	.
=119	=119	=119	=119	=119
0GG	0r	0G	1.d	1.b-y
.	.	.	2c	2a
=120	=120	=120	=120	=120
0r	0r	0r	1B-y	1g
.	.	.	2A	2f
.	.	.	[2B-y	[2g
=121	=121	=121	=121	=121
0r	0r	1r	4B-]	4g]
.	.	.	4A	4f
.	.	.	1d	2d
.	.	1A	.	1e
.	.	.	2c#i	.
=122	=122	=122	=122	=122
2r	0r	2.B-y	0d	0d
2BB-y	.	.	.	.
.	.	4A	.	.
4BB-y	.	4B-y	.	.
4AA	.	4c	.	.
4BB-y	.	[2d	.	.
4C	.	.	.	.
=123	=123	=123	=123	=123
2.D	0r	4d]	0r	0r
.	.	4c	.	.
.	.	4d	.	.
4C	.	4e	.	.
4D	.	2f	.	.
4E	.	.	.	.
[2F	.	4e	.	.
.	.	4d	.	.
=124	=124	=124	=124	=124
4F]	0r	2c	0r	0r
4G	.	.	.	.
4A	.	2A	.	.
4F	.	.	.	.
2G	.	2B-y	.	.
[2B-y	.	2d	.	.
=125	=125	=125	=125	=125
2B-]	0r	1c	1r	0r
2A	.	.	.	.
2.B-y	.	[1B-y	2r	.
.	.	.	2G	.
4BB-y	.	.	.	.
=126	=126	=126	=126	=126
1BB-y	0r	1B-]	2.B-y	2r
.	.	.	.	2d
.	.	.	4c	.
1r	.	1r	2d	2.f
.	.	.	2e	.
.	.	.	.	4g
=127	=127	=127	=127	=127
0r	0r	0r	2f	2a
.	.	.	2d	2b-y
.	.	.	2e	2.cc
.	.	.	[2f	.
.	.	.	.	4b-y
=128	=128	=128	=128	=128
0r	0r	0r	4f]	4a
.	.	.	4e	4g
.	.	.	4d	2.a
.	.	.	4c	.
.	.	.	2.d	.
.	.	.	.	4g
.	.	.	.	4f
.	.	.	4c	4e
=129	=129	=129	=129	=129
0r	0r	0r	4B-y	2f
.	.	.	4A	.
.	.	.	1B-y	2.g
.	.	.	.	4f
.	.	.	2d	[2b-y
=130	=130	=130	=130	=130
1r	0r	1r	1c	2b-]
.	.	.	.	2a
2r	.	2r	2B-y	2b-y
2BB-y	.	2d	2f	2b-y
=131	=131	=131	=131	=131
2BB-y	0r	2d	2f	2b-y
2BB-y	.	2d	2f	2b-y
1BB-y	.	1d	[1f	1b-y
=132	=132	=132	=132	=132
2r	0r	2r	1f]	0r
1D	.	1B-y	.	.
.	.	.	1r	.
2D	.	2B-y	.	.
=133	=133	=133	=133	=133
2.C	0r	2.A	1r	1r
4BB-y	.	4G	.	.
2AA	.	2F	2r	2r
2GG	.	2G	[2d	[2b-y
=134	=134	=134	=134	=134
0r	0r	0r	2d]	2b-]
.	.	.	2d	2b-y
.	.	.	2.c	2.a
.	.	.	4B-y	4g
=135	=135	=135	=135	=135
2r	0r	1r	2A	2f
2.GG	.	.	2G	2g
.	.	2.D	1r	1r
4AA	.	.	.	.
4BB-y	.	.	.	.
4C	.	4E	.	.
=136	=136	=136	=136	=136
4D	0r	4F	0r	0r
4E	.	4G	.	.
4F	.	4A	.	.
4D	.	4B-y	.	.
2E	.	4c	.	.
.	.	4B-y	.	.
[2F	.	4A	.	.
.	.	4G	.	.
=137	=137	=137	=137	=137
2F]	0r	2F	0r	0r
4E	.	1B-y	.	.
4D	.	.	.	.
1C	.	.	.	.
.	.	2A	.	.
=138	=138	=138	=138	=138
2BB-y	0r	2B-y	0r	0r
1D	.	1B-y	.	.
2D	.	2B-y	.	.
=139	=139	=139	=139	=139
2.C	0r	2.A	1r	1r
4BB-y	.	4G	.	.
2AA	.	2F	2r	2r
2GG	.	2G	[2d	[2b-y
=140	=140	=140	=140	=140
0r	0r	0r	2d]	2b-]
.	.	.	2d	2b-y
.	.	.	2.c	2.a
.	.	.	4B-y	4g
=141	=141	=141	=141	=141
2r	0r	2r	2A	2f
4GG	.	1B-y	2G	2g
4AA	.	.	.	.
4BB-y	.	.	1d	4d
4C	.	.	.	4e
4D	.	2B-y	.	4f
4E	.	.	.	4g
=142	=142	=142	=142	=142
4F	0r	1A	1c	4a
4G	.	.	.	4b-y
4A	.	.	.	4cc
4F	.	.	.	4a
2G	.	2G	2B-y	2b-y
2D	.	2F	[2d	[2a
=143	=143	=143	=143	=143
1E	0r	1G	2d]	4a]
.	.	.	.	4g
.	.	.	2c	1g
1D	.	1A	[1dl	.
.	.	.	.	2f#i
=144	=144	=144	=144	=144
0GGl	0r	0Gl	0d]	0gl
=145||	=145||	=145||	=145||	=145||
*M2/1	*M2/1	*M2/1	*M2/1	*M2/1
*met(C|)	*met(C|)	*met(C|)	*met(C|)	*met(C|)
!!section: Sicut locutus
!!!OMD: Sicut locutus
[0BB-y	0r	1.F	0r	0r
.	.	4E	.	.
.	.	4F	.	.
=146	=146	=146	=146	=146
0BB-]	0r	2G	0r	0r
.	.	2F	.	.
.	.	4D	.	.
.	.	4E	.	.
.	.	4F	.	.
.	.	4G	.	.
=147	=147	=147	=147	=147
0C	0r	2A	0r	0r
.	.	1B-y	.	.
.	.	2A	.	.
=148	=148	=148	=148	=148
1.BB-y	0r	0B-y	0r	0r
4AA	.	.	.	.
4BB-y	.	.	.	.
=149	=149	=149	=149	=149
2C	0r	1r	0r	0r
2BB-y	.	.	.	.
4GG	.	1d	.	.
4AA	.	.	.	.
4BB-y	.	.	.	.
4C	.	.	.	.
=150	=150	=150	=150	=150
4BB-y	0r	1.d	0r	0r
4C	.	.	.	.
4D	.	.	.	.
4E-i	.	.	.	.
2.D	.	.	.	.
.	.	2d	.	.
4E-i	.	.	.	.
=151	=151	=151	=151	=151
2F	0r	2c	0r	0r
1G	.	2B-y	.	.
.	.	2.c	.	.
2F	.	.	.	.
.	.	4d	.	.
=152	=152	=152	=152	=152
1G	0r	2e-i	0r	0r
.	.	2.d	.	.
2.GG	.	.	.	.
.	.	4c	.	.
.	.	[2B-y	.	.
4AA	.	.	.	.
=153	=153	=153	=153	=153
2BB-y	0r	4B-]	0r	0r
.	.	4A	.	.
2C	.	2G	.	.
1AA	.	2A	.	.
.	.	[2c	.	.
=154	=154	=154	=154	=154
2GG	0r	4c]	0r	0r
.	.	4B-y	.	.
2.D	.	1B-y	.	.
4C	.	.	.	.
[2F	.	[2A	.	.
=155	=155	=155	=155	=155
4F]	0r	4A]	0r	0r
4E	.	4G	.	.
4D	.	4F	.	.
4C	.	4E	.	.
2D	.	2F	.	.
[2E	.	[2G	.	.
=156	=156	=156	=156	=156
2E]	0r	4G]	0r	0r
.	.	4F	.	.
2D	.	1B-y	.	.
1C	.	.	.	.
.	.	2A	.	.
=157	=157	=157	=157	=157
1BB-y	0r	0B-y	0r	0r
2r	.	.	.	.
2BB-y	.	.	.	.
=158	=158	=158	=158	=158
1AA	0r	1r	0r	0r
1BB-y	.	1B-y	.	.
=159	=159	=159	=159	=159
2C	0r	1A	0r	0r
2.D	.	.	.	.
.	.	[1B-y	.	.
4C	.	.	.	.
4BB-y	.	.	.	.
4AA	.	.	.	.
=160	=160	=160	=160	=160
2GG	0r	1B-]	0r	0r
2G	.	.	.	.
2E	.	1c	.	.
2F	.	.	.	.
=161	=161	=161	=161	=161
2G	0r	2.B-y	0r	0r
2.GG	.	.	.	.
.	.	4A	.	.
.	.	4B-y	.	.
4AA	.	4c	.	.
4BB-y	.	[2d	.	.
4C	.	.	.	.
=162	=162	=162	=162	=162
2D	0r	2d]	0r	0r
2E	.	4c	.	.
.	.	4B-y	.	.
1F	.	2A	.	.
.	.	[2c	.	.
=163	=163	=163	=163	=163
2E	0r	2c]	0r	0r
2D	.	1B-y	.	.
1C	.	.	.	.
.	.	2A	.	.
=164	=164	=164	=164	=164
1BB-y	0r	0B-y	0r	0r
1r	.	.	.	.
=165	=165	=165	=165	=165
1E-X	0r	1r	0r	0r
2E-i	.	1B-y	.	.
[2E-i	.	.	.	.
=166	=166	=166	=166	=166
2E-]	0r	2B-y	0r	0r
4D	.	1B-y	.	.
4C	.	.	.	.
1BB-y	.	.	.	.
.	.	4A	.	.
.	.	4G	.	.
=167	=167	=167	=167	=167
1D	0r	1F	0r	0r
2D	.	1A	.	.
2D	.	.	.	.
=168	=168	=168	=168	=168
2.D	0r	2A	0r	0r
.	.	2A	.	.
8CL	.	.	.	.
8BB-yJ	.	.	.	.
2.AA	.	2A	.	.
.	.	4G	.	.
4BB-y	.	4F	.	.
=169	=169	=169	=169	=169
4C	0r	2.E	0r	0r
4D	.	.	.	.
1C	.	.	.	.
.	.	4F	.	.
.	.	4G	.	.
.	.	4A	.	.
4BB-y	.	[2G	.	.
4AA	.	.	.	.
=170	=170	=170	=170	=170
2.GG	0r	2G]	0r	0r
.	.	4F	.	.
4AA	.	4E	.	.
4BB-y	.	2.D	.	.
4C	.	.	.	.
[2D	.	.	.	.
.	.	4E	.	.
=171	=171	=171	=171	=171
4D]	0r	4F	0r	0r
4C	.	4G	.	.
4D	.	2.A	.	.
4E	.	.	.	.
2.F	.	.	.	.
.	.	4G	.	.
.	.	4A	.	.
4E	.	4B-y	.	.
=172	=172	=172	=172	=172
2C	0r	1c	0r	0r
2E-X	.	.	.	.
2D	.	2B-y	.	.
[2C	.	[2A	.	.
=173	=173	=173	=173	=173
2C]	0r	4A]	0r	0r
.	.	4G	.	.
2BB-y	.	1G	.	.
1AA	.	.	.	.
.	.	2F#i	.	.
=174	=174	=174	=174	=174
1GG	0r	0G	0r	0r
2r	.	.	.	.
[2G	.	.	.	.
=175	=175	=175	=175	=175
2G]	0r	2r	0r	0r
2F	.	1c	.	.
2E	.	.	.	.
2D	.	2B-y	.	.
=176	=176	=176	=176	=176
2C	0r	2A	0r	0r
2BB-y	.	2G	.	.
2AA	.	2F	.	.
2GG	.	2E	.	.
=177	=177	=177	=177	=177
2BB-y	0r	2D	0r	0r
2C	.	1G	.	.
1AA	.	.	.	.
.	.	2F#i	.	.
=178	=178	=178	=178	=178
0GGl	0r	0Gl	0r	0r
=179||	=179||	=179||	=179||	=179||
*M2/1	*M2/1	*M2/1	*M2/1	*M2/1
*met(C|)	*met(C|)	*met(C|)	*met(C|)	*met(C|)
!!section: Sicut erat
!!!OMD: Sicut erat
0F	0r	0F	0r	0r
=180	=180	=180	=180	=180
1E	0r	1G	0r	0r
1D	.	[1B-y	.	.
=181	=181	=181	=181	=181
0C	0r	2B-]	0C	0r
.	.	4A	.	.
.	.	4G	.	.
.	.	1A	.	.
=182	=182	=182	=182	=182
0BB-y	0B-y	0B-y	1D	0f
.	.	.	[1F	.
=183	=183	=183	=183	=183
0r	1G	0r	2F]	1g
.	.	.	4E	.
.	.	.	4D	.
.	1G	.	1E	[1b-y
=184	=184	=184	=184	=184
0FF	0F	0r	0F	2b-]
.	.	.	.	4a
.	.	.	.	4g
.	.	.	.	1a
=185	=185	=185	=185	=185
1BB-y	1F	1.B-y	0r	1.b-y
2.BB-y	[1B-y	.	.	.
.	.	2B-y	.	4a
4C	.	.	.	4g
=186	=186	=186	=186	=186
2D	2B-]	2B-y	0r	2f
1E-X	2A	2B-y	.	1g
.	1G	[1B-y	.	.
4D	.	.	.	4f
4C	.	.	.	4e
=187	=187	=187	=187	=187
1.BB-y	1.d	0B-]	1.F	1d
.	.	.	.	[1b-y
2BB-y	2d	.	2F	.
=188	=188	=188	=188	=188
2BB-y	2d	0r	2F	2b-]
2BB-y	2d	.	2F	2b-y
[1BB-y	[1d	.	[1F	2b-y
.	.	.	.	2b-y
=189	=189	=189	=189	=189
1BB-]	2d]	1.B-y	0F]	2.f
.	4c	.	.	.
.	4B-y	.	.	4g
1F	1c	.	.	4a
.	.	.	.	4b-y
.	.	2A	.	[2cc
=190	=190	=190	=190	=190
2D	2r	1B-y	0r	4cc]
.	.	.	.	4b-y
2BB-y	2.F	.	.	1b-y
1F	.	1c	.	.
.	4G	.	.	.
.	2A	.	.	2a
=191	=191	=191	=191	=191
1BB-y	2.F	1B-y	1.F	1b-y
.	4G	.	.	.
1r	4A	1r	.	1r
.	4B-y	.	.	.
.	2c	.	2E	.
=192	=192	=192	=192	=192
0r	2A	0r	1E	2r
.	2F	.	.	2.cc
.	1B-y	.	1G	.
.	.	.	.	4b-y
.	.	.	.	[2b-y
=193	=193	=193	=193	=193
1F	1c	0r	1F	2b-]
.	.	.	.	2a
2.BB-y	2B-y	.	1r	1b-y
.	[2d	.	.	.
4C	.	.	.	.
=194	=194	=194	=194	=194
2D	2d]	0r	0r	1r
2E	4c	.	.	.
.	4B-y	.	.	.
1F	2.A	.	.	1a
.	4B-y	.	.	.
=195	=195	=195	=195	=195
2E	2c	0r	0r	2g
2D	1d	.	.	2f
1E	.	.	.	1g
.	2c	.	.	.
=196	=196	=196	=196	=196
2.D	1d	0r	0r	2.f
4E	.	.	.	4g
1F	2c	.	.	4a
.	.	.	.	4b-y
.	2A	.	.	[2cc
=197	=197	=197	=197	=197
1G	1B-y	0r	0r	4cc]
.	.	.	.	4b-y
.	.	.	.	1b-y
1F	1c	.	.	.
.	.	.	.	2a
=198	=198	=198	=198	=198
0BB-y	1B-y	1.B-y	0r	0b-y
.	1r	.	.	.
.	.	2B-y	.	.
=199	=199	=199	=199	=199
1.BB-y	1.d	1B-y	0r	1.f
.	.	1B-y	.	.
2BB-y	2d	.	.	2f
=200	=200	=200	=200	=200
1BB-y	1d	0B-y	1.F	1f
1BB-y	1d	.	.	1f
.	.	.	2F	.
=201	=201	=201	=201	=201
0BB-y	0B-y	0r	1F	[0d
.	.	.	1F	.
=202	=202	=202	=202	=202
1D	1B-y	0r	0F	0d]
1D	1B-y	.	.	.
=203	=203	=203	=203	=203
2.C	2.A	0r	0r	0r
4D	4B-y	.	.	.
2E	2c	.	.	.
[2D	[2B-y	.	.	.
=204	=204	=204	=204	=204
2D]	2B-]	0r	0r	0r
4C	4A	.	.	.
4BB-y	4G	.	.	.
1AA	2G	.	.	.
.	2F#i	.	.	.
=205	=205	=205	=205	=205
0GG	4G	0r	0r	1b-y
.	4A	.	.	.
.	4B-y	.	.	.
.	4c	.	.	.
.	2d	.	.	1b-y
.	2e	.	.	.
=206	=206	=206	=206	=206
0r	1f	0r	0r	1a
.	2e	.	.	2g
.	[2d	.	.	[2b-y
=207	=207	=207	=207	=207
1D	2d]	0r	0r	2b-]
.	4c	.	.	4a
.	4B-y	.	.	4g
1D	1A	.	.	2f#i
.	.	.	.	4g
.	.	.	.	4f#i
=208	=208	=208	=208	=208
1.E-X	1.G	0B-y	0r	1g
.	.	.	.	2r
4D	4F	.	.	[2g
4C	4E	.	.	.
=209	=209	=209	=209	=209
1BB-y	1F	0B-y	0r	2g]
.	.	.	.	1b-y
1GG	1G	.	.	.
.	.	.	.	4a
.	.	.	.	4g
=210	=210	=210	=210	=210
1.D	1.F	0A	0F	2.a
.	.	.	.	4d
.	.	.	.	1d
[2F	[2A	.	.	.
=211	=211	=211	=211	=211
4F]	4A]	0F	0F	0r
4E	4G	.	.	.
4D	1c	.	.	.
4C	.	.	.	.
1D	.	.	.	.
.	2BnXi	.	.	.
=212	=212	=212	=212	=212
0C	0c	0G	0E	1g
.	.	.	.	2.cc
.	.	.	.	4b-y
=213	=213	=213	=213	=213
0E-X	1r	0G	0C	2cc
.	.	.	.	1b-y
.	1C	.	.	.
.	.	.	.	4a
.	.	.	.	4g
=214	=214	=214	=214	=214
0D	0F	0A	[0D	2f
.	.	.	.	1g
.	.	.	.	2f
=215	=215	=215	=215	=215
0GG	1D	[0Gl	0D]	[0gl
.	[1d	.	.	.
=216	=216	=216	=216	=216
0C	2d]	0G_	0E	0g_
.	2c	.	.	.
.	2c	.	.	.
.	4B-y	.	.	.
.	4A	.	.	.
=217	=217	=217	=217	=217
0GGl	0B-yl	0G]	0Dl	0g]
==	==	==	==	==
*-	*-	*-	*-	*-
!!!system-decoration: s1,s2,s3,s4,s5
!!!RDF**kern: i = editorial accidental
!!!RDF**kern: l = terminal long
!!!ENC: Janosch Umbreit
!!!END: 2026/03/13
!!!EED: Benjamin Ory
!!!EEV: 2026/06/10
!!!YEC: Copyright 2026 Benjamin Ory, All Rights Reserved
!!!ONB: Translated from MusicXML on 2026/06/10
!!muse2ps: C^@{COM}^i2I150v90,90,90,90,120c120z18l2770t130
